!!!COM: Igor (Fyodorovich) Stravinsky
!!!OTL: [T386_Str-w30p58h23m1-h24m1]
**kern	**dynam	**kern	**dynam	**kern	**dynam	**kern	**kern	**dynam	**kern	**kern	**dynam	**kern	**text	**dynam	**kern	**text	**dynam	**kern	**text	**dynam	**kern	**text	**dynam	**kern	**dynam	**kern	**dynam	**kern	**dynam	**kern	**dynam	**kern	**dynam	**kern	**dynam	**kern	**dynam	**kern	**dynam	**kern	**dynam	**kern	**dynam	**kern	**dynam
*grp:A	*grp:A	*grp:A	*grp:A	*grp:A	*	*grp:A	*grp:A	*grp:A	*grp:A	*grp:A	*grp:B	*grp:B	*grp:B	*grp:B	*grp:B	*grp:B	*grp:B	*grp:B	*grp:B	*grp:B	*grp:B	*grp:B	*grp:B	*grp:A	*grp:A	*grp:A	*grp:A	*grp:A	*grp:A	*grp:A	*grp:A	*grp:A	*grp:A	*grp:A	*grp:A	*grp:A	*grp:A	*grp:A	*grp:A	*grp:A	*grp:A	*grp:A	*grp:A	*grp:A	*grp:A
*part20	*part20	*part19	*part19	*part18	*part18	*part17	*part17	*part17	*part16	*part16	*part16	*part15	*part15	*part15	*part14	*part14	*part14	*part13	*part13	*part13	*part12	*part12	*part12	*part11	*part11	*part10	*part10	*part9	*part9	*part8	*part8	*part7	*part7	*part6	*part6	*part5	*part5	*part4	*part4	*part3	*part3	*part2	*part2	*part1	*part1
*staff22	*staff22	*staff21	*staff21	*staff20	*staff20	*staff19	*staff18	*staff18	*staff17	*staff16	*staff16	*staff15	*staff15	*staff15	*staff14	*staff14	*staff14	*staff13	*staff13	*staff13	*staff12	*staff12	*staff12	*staff11	*staff11	*staff10	*staff10	*staff9	*staff9	*staff8	*staff8	*staff7	*staff7	*staff6	*staff6	*staff5	*staff5	*staff4	*staff4	*staff3	*staff3	*staff2	*staff2	*staff1	*staff1
*I"Violoncello	*I"Violoncello	*I"Violoncello	*I"Violoncello	*I"Violoncello	*I"Violoncello	*I"Piano	*I"Piano	*I"Piano	*I"Harp	*I"Harp	*I"Harp	*I"Baritone	*I"Baritone	*I"Baritone	*I"Tenor	*I"Tenor	*I"Tenor	*I"Alto	*I"Alto	*I"Alto	*I"Soprano	*I"Soprano	*I"Soprano	*I"Timpani	*I"Timpani	*I"Trumpet in C 4	*I"Trumpet in C 4	*I"Trumpet in C 3	*I"Trumpet in C 3	*I"Trumpet in C 2	*I"Trumpet in C 2	*I"Trumpet in C 1	*I"Trumpet in C 1	*I"Trumpet in D	*I"Trumpet in D	*I"Clarinet in Bb	*I"Clarinet in Bb	*I"Oboe 4	*I"Oboe 4	*I"Oboe 3	*I"Oboe 3	*I"Oboe 2	*I"Oboe 2	*I"Oboe 1	*I"Oboe 1
*I'Vc.	*	*I'Vc.	*	*I'Vc.	*	*I'Pno.	*	*	*I'Hp.	*	*	*I'Bar.	*	*	*I'T.	*	*	*I'A.	*	*	*I'S.	*	*	*I'Timp.	*	*I'C Tpt.	*	*I'C Tpt.	*	*I'C Tpt.	*	*I'C Tpt.	*	*I'D Tpt.	*	*I'Cl.	*	*I'Ob.	*	*I'Ob.	*	*I'Ob.	*	*I'Ob.	*
!!pagebreak:original
*clefF4	*	*clefC4	*	*clefF4	*	*clefF4	*clefF4	*	*clefF4	*clefF4	*	*clefF4	*	*	*clefGv2	*	*	*clefG2	*	*	*clefG2	*	*	*clefF4	*	*clefG2	*	*clefG2	*	*clefG2	*	*clefG2	*	*clefG2	*	*clefG2	*	*clefG2	*	*clefG2	*	*clefG2	*	*clefG2	*
*	*	*	*	*	*	*	*	*	*	*	*	*	*	*	*ITrd7c12	*	*	*	*	*	*	*	*	*	*	*	*	*	*	*	*	*	*	*ITrd-1c-2	*	*ITrd1c2	*	*	*	*	*	*	*	*	*
*k[b-e-a-]	*	*k[b-e-a-]	*	*k[b-e-a-]	*	*k[b-e-a-]	*k[b-e-a-]	*	*k[b-e-a-]	*k[b-e-a-]	*	*k[b-e-a-]	*	*	*k[b-e-a-]	*	*	*k[b-e-a-]	*	*	*k[b-e-a-]	*	*	*k[b-e-a-]	*	*k[b-e-a-]	*	*k[b-e-a-]	*	*k[b-e-a-]	*	*k[b-e-a-]	*	*k[f#c#]	*	*k[b-e-a-]	*	*k[b-e-a-]	*	*k[b-e-a-]	*	*k[b-e-a-]	*	*k[b-e-a-]	*
*E-:	*	*E-:	*	*E-:	*	*E-:	*E-:	*	*E-:	*E-:	*	*E-:	*	*	*E-:	*	*	*E-:	*	*	*E-:	*	*	*E-:	*	*E-:	*	*E-:	*	*E-:	*	*E-:	*	*D:	*	*E-:	*	*E-:	*	*E-:	*	*E-:	*	*E-:	*
*M3/2	*	*M3/2	*	*M3/2	*	*M3/2	*M3/2	*	*M3/2	*M3/2	*	*M3/2	*	*	*M3/2	*	*	*M3/2	*	*	*M3/2	*	*	*M3/2	*	*M3/2	*	*M3/2	*	*M3/2	*	*M3/2	*	*M3/2	*	*M3/2	*	*M3/2	*	*M3/2	*	*M3/2	*	*M3/2	*
!!LO:REH:t=23
=1	=1	=1	=1	=1	=1	=1	=1	=1	=1	=1	=1	=1	=1	=1	=1	=1	=1	=1	=1	=1	=1	=1	=1	=1	=1	=1	=1	=1	=1	=1	=1	=1	=1	=1	=1	=1	=1	=1	=1	=1	=1	=1	=1	=1	=1
!	!LO:DY:t=[ cantabile ma non %s ]	!	!LO:DY:t=[ cantabile ma non %s ]	!	!LO:DY:t=[ cantabile ma non %s ]	!	!	!LO:DY:ed=brack	!	!	!LO:DY:ed=brack	!	!	!LO:DY:ed=brack	!	!	!LO:DY:ed=brack	!	!	!LO:DY:ed=brack	!	!	!LO:DY:ed=brack	!	!LO:DY:ed=brack	!	!LO:DY:ed=brack	!	!LO:DY:ed=brack	!	!LO:DY:ed=brack	!	!LO:DY:ed=brack	!	!LO:DY:ed=brack	!	!	!	!	!	!	!	!	!	!
*	*	*	*	*	*	*8ba	*	*	*8ba	*	*	*	*	*	*	*	*	*	*	*	*	*	*	*	*	*	*	*	*	*	*	*	*	*	*	*	*	*	*	*	*	*	*	*	*
1.ryy	4ryy	1.ryy	4ryy	1.ryy	4ryy	2ryy	2ryy	4ryy	2ryy	2ryy	mf	2B-	Lau-	p	2C	Lau-	p	2a-	Lau-	p	2ee-	Lau-	p	2ryy	4ryy	2ryy	4ryy	1.ryy	4ryy	1ryy	4ryy	1.ryy	4ryy	1.ryy	4ryy	2%3ryy	.	2%3ryy	.	2%3ryy	.	2%3ryy	.	2%3ryy	.
.	.	.	.	.	.	2ryy	2ryy	.	2ryy	2ryy	.	2BB-	-da-	.	2C	-da-	.	2a-	-da-	.	2dd	-da-	.	2ryy	.	2ryy	.	.	.	.	.	.	.	.	.	.	.	.	.	.	.	.	.	.	.
.	.	.	.	.	.	2ryy	2ryy	.	2ryy	2ryy	.	2B-	-te	.	2C	-te	.	2a-	-te	.	(4cc	-te	.	2ryy	.	2ryy	.	.	.	2ryy	.	.	.	.	.	.	.	.	.	.	.	.	.	.	.
.	.	.	.	.	.	.	.	.	.	.	.	.	.	.	.	.	.	.	.	.	4dd)	.	.	.	.	.	.	.	.	.	.	.	.	.	.	.	.	.	.	.	.	.	.	.	.
=2	=2	=2	=2	=2	=2	=2	=2	=2	=2	=2	=2	=2	=2	=2	=2	=2	=2	=2	=2	=2	=2	=2	=2	=2	=2	=2	=2	=2	=2	=2	=2	=2	=2	=2	=2	=2	=2	=2	=2	=2	=2	=2	=2	=2	=2
1.ryy	.	1.ryy	.	1.ryy	.	2ryy	2ryy	.	2ryy	2ryy	.	1B-	E-	.	2C	E-	.	(2a-	E-	.	(2ee-	E-	.	2ryy	.	2ryy	.	2ryy	.	2ryy	.	1.ryy	.	1ryy	.	2%3ryy	.	2%3ryy	.	2%3ryy	.	2%3ryy	.	2%3ryy	.
.	.	.	.	.	.	2ryy	2ryy	.	2ryy	2ryy	.	.	.	.	2BB-	.	.	2b-)	.	.	2dd)	.	.	2ryy	.	2ryy	.	2ryy	.	2ryy	.	.	.	.	.	.	.	.	.	.	.	.	.	.	.
.	.	.	.	.	.	2ryy	2ryy	.	2ryy	2ryy	.	2BB-	-um	.	2C	-um	.	2a-	-um	.	(4cc	-um	.	2ryy	.	2ryy	.	2ryy	.	2ryy	.	.	.	4ryy	.	.	.	.	.	.	.	.	.	.	.
.	.	.	.	.	.	.	.	.	.	.	.	.	.	.	.	.	.	.	.	.	4dd)	.	.	.	.	.	.	.	.	.	.	.	.	4ryy	.	.	.	.	.	.	.	.	.	.	.
=3	=3	=3	=3	=3	=3	=3	=3	=3	=3	=3	=3	=3	=3	=3	=3	=3	=3	=3	=3	=3	=3	=3	=3	=3	=3	=3	=3	=3	=3	=3	=3	=3	=3	=3	=3	=3	=3	=3	=3	=3	=3	=3	=3	=3	=3
1.ryy	.	1.ryy	.	1.ryy	.	2ryy	2ryy	.	2ryy	2ryy	.	2B-	in	.	2C	in	.	2b-	in	.	2ee-	in	.	2ryy	.	2ryy	.	1.ryy	.	1.ryy	.	2ryy	.	1.ryy	.	2%3ryy	.	2%3ryy	.	2%3ryy	.	2%3ryy	.	2%3ryy	.
.	.	.	.	.	.	2ryy	2ryy	.	2ryy	2ryy	.	2BB-	cym-	.	2C	cym-	.	2a-	cym-	.	2dd	cym-	.	2ryy	.	2ryy	.	.	.	.	.	2ryy	.	.	.	.	.	.	.	.	.	.	.	.	.
.	.	.	.	.	.	2ryy	2ryy	.	2ryy	2ryy	.	4B-	-ba-	.	4C	-ba-	.	4b-	-ba-	.	4cc	-ba-	.	2ryy	.	2ryy	.	.	.	.	.	2ryy	.	.	.	.	.	.	.	.	.	.	.	.	.
.	.	.	.	.	.	.	.	.	.	.	.	4B-	-lis	.	4C	-lis	.	4b-	-lis	.	4dd	-lis	.	.	.	.	.	.	.	.	.	.	.	.	.	.	.	.	.	.	.	.	.	.	.
*	*	*clefF4	*	*clefC4	*	*	*	*	*	*	*	*	*	*	*	*	*	*	*	*	*	*	*	*	*	*	*	*	*	*	*	*	*	*	*	*	*	*	*	*	*	*	*	*	*
=4	=4	=4	=4	=4	=4	=4	=4	=4	=4	=4	=4	=4	=4	=4	=4	=4	=4	=4	=4	=4	=4	=4	=4	=4	=4	=4	=4	=4	=4	=4	=4	=4	=4	=4	=4	=4	=4	=4	=4	=4	=4	=4	=4	=4	=4
!	!	!	!	!	!	!	!	!	!	!	!	!	!	!	!LO:TX:i:t=non cresc.	!	!	!	!	!	!	!	!	!	!	!	!	!	!	!	!	!	!	!	!	!	!	!	!	!	!	!	!	!	!
1.ryy	.	1.ryy	.	1ryy	.	2ryy	2ryy	.	2ryy	2ryy	.	2BB-	ju-	.	2C	ju-	.	2a-	ju-	.	2ee-	ju-	.	2ryy	.	1.ryy	.	1.ryy	.	1.ryy	.	1.ryy	.	1ryy	.	2%3ryy	.	2%3ryy	.	2%3ryy	.	2%3ryy	.	2%3ryy	.
.	.	.	.	.	.	2ryy	2ryy	.	2ryy	2ryy	.	2B-	-bi-	.	2A-	-bi-	.	2b-	-bi-	.	2dd	-bi-	.	2ryy	.	.	.	.	.	.	.	.	.	.	.	.	.	.	.	.	.	.	.	.	.
.	.	.	.	4ryy	.	2ryy	2ryy	.	2ryy	2ryy	.	2B-	-la-	.	2G	-la-	.	(4a-	-la-	.	(4cc	-la-	.	2ryy	.	.	.	.	.	.	.	.	.	4ryy	.	.	.	.	.	.	.	.	.	.	.
.	.	.	.	4ryy	.	.	.	.	.	.	.	.	.	.	.	.	.	4b-)	.	.	4dd-X)	.	.	.	.	.	.	.	.	.	.	.	.	4ryy	.	.	.	.	.	.	.	.	.	.	.
*	*	*clefC4	*	*	*	*	*	*	*	*	*	*	*	*	*	*	*	*	*	*	*	*	*	*	*	*	*	*	*	*	*	*	*	*	*	*	*	*	*	*	*	*	*	*	*
=5	=5	=5	=5	=5	=5	=5	=5	=5	=5	=5	=5	=5	=5	=5	=5	=5	=5	=5	=5	=5	=5	=5	=5	=5	=5	=5	=5	=5	=5	=5	=5	=5	=5	=5	=5	=5	=5	=5	=5	=5	=5	=5	=5	=5	=5
2ryy	.	2ryy	.	2ryy	.	2ryy	2ryy	.	2ryy	2ryy	.	2An	-ti-	.	2F#X	-ti-	.	2cc	-ti-	.	2ddn	-ti-	.	2ryy	.	2ryy	.	2ryy	.	2ryy	.	2ryy	.	1.ryy	.	2%3ryy	.	2%3ryy	.	2%3ryy	.	2%3ryy	.	2%3ryy	.
2ryy	.	2.ryy	.	2ryy	.	2ryy	2ryy	.	2ryy	2ryy	.	2B-	-o-	.	2Fn	-o-	.	[2g	-o-	.	2dd-X	-o-	.	2ryy	.	2ryy	.	2ryy	.	2ryy	.	2ryy	.	.	.	.	.	.	.	.	.	.	.	.	.
2ryy	.	.	.	2ryy	.	2ryy	2ryy	.	2ryy	2ryy	.	2c	-ni-	.	2E-	-ni-	.	4g]	.	.	2cc	-ni-	.	2ryy	.	2ryy	.	2ryy	.	2ryy	.	2ryy	.	.	.	.	.	.	.	.	.	.	.	.	.
.	.	4ryy	.	.	.	.	.	.	.	.	.	.	.	.	.	.	.	4an	-ni-	.	.	.	.	.	.	.	.	.	.	.	.	.	.	.	.	.	.	.	.	.	.	.	.	.	.
=6	=6	=6	=6	=6	=6	=6	=6	=6	=6	=6	=6	=6	=6	=6	=6	=6	=6	=6	=6	=6	=6	=6	=6	=6	=6	=6	=6	=6	=6	=6	=6	=6	=6	=6	=6	=6	=6	=6	=6	=6	=6	=6	=6	=6	=6
1.ryy	.	1.ryy	.	1.ryy	.	2ryy	2ryy	.	2ryy	2ryy	.	1.c,	-bus.	.	1.D,	-bus.	.	1.b-	-bus.	.	1.cc	-bus.	.	2ryy	.	1.ryy	.	1.ryy	.	1.ryy	.	1.ryy	.	1.ryy	.	2%3ryy	.	2%3ryy	.	2%3ryy	.	2%3ryy	.	2%3ryy	.
.	.	.	.	.	.	2ryy	2ryy	.	2ryy	2ryy	.	.	.	.	.	.	.	.	.	.	.	.	.	2ryy	.	.	.	.	.	.	.	.	.	.	.	.	.	.	.	.	.	.	.	.	.
.	.	.	.	.	.	2ryy	2ryy	.	2ryy	2ryy	.	.	.	.	.	.	.	.	.	.	.	.	.	2ryy	.	.	.	.	.	.	.	.	.	.	.	.	.	.	.	.	.	.	.	.	.
!!LO:REH:t=24
=7	=7	=7	=7	=7	=7	=7	=7	=7	=7	=7	=7	=7	=7	=7	=7	=7	=7	=7	=7	=7	=7	=7	=7	=7	=7	=7	=7	=7	=7	=7	=7	=7	=7	=7	=7	=7	=7	=7	=7	=7	=7	=7	=7	=7	=7
!	!	!	!	!	!	!	!	!	!	!	!	!	!	!LO:DY:rj:t=poco %s	!	!	!LO:DY:rj:t=poco %s	!	!	!	!	!	!	!	!	!	!	!	!	!	!	!	!	!	!	!	!	!	!	!	!	!	!	!	!
2%3ryy	.	2%3ryy	.	2%3ryy	.	2ryy	2ryy	.	2ryy	2ryy	.	1.BB-	Lau --	sfp	1.BB-	Lau --	sfp	2%3r	.	.	2%3r	.	.	2ryy	.	2%3ryy	.	2%3ryy	.	2%3ryy	.	2%3ryy	.	2%3ryy	.	1.ryy	4ryy	1.ryy	4ryy	1.ryy	4ryy	1.ryy	4ryy	1.ryy	4ryy
.	.	.	.	.	.	2ryy	2ryy	.	2ryy	2ryy	.	.	.	.	.	.	.	.	.	.	.	.	.	2ryy	.	.	.	.	.	.	.	.	.	.	.	.	.	.	.	.	.	.	.	.	.
.	.	.	.	.	.	2ryy	2ryy	.	2ryy	2ryy	.	.	.	.	.	.	.	.	.	.	.	.	.	2ryy	.	.	.	.	.	.	.	.	.	.	.	.	.	.	.	.	.	.	.	.	.
*	*	*	*	*	*	*X8ba	*	*	*X8ba	*	*	*	*	*	*	*	*	*	*	*	*	*	*	*	*	*	*	*	*	*	*	*	*	*	*	*	*	*	*	*	*	*	*	*	*
=||	=||	=||	=||	=||	=||	=||	=||	=||	=||	=||	=||	=||	=||	=||	=||	=||	=||	=||	=||	=||	=||	=||	=||	=||	=||	=||	=||	=||	=||	=||	=||	=||	=||	=||	=||	=||	=||	=||	=||	=||	=||	=||	=||	=||	=||
*-	*-	*-	*-	*-	*-	*-	*-	*-	*-	*-	*-	*-	*-	*-	*-	*-	*-	*-	*-	*-	*-	*-	*-	*-	*-	*-	*-	*-	*-	*-	*-	*-	*-	*-	*-	*-	*-	*-	*-	*-	*-	*-	*-	*-	*-
!!!system-decoration: [(s1,s2,s3,s4,s5)][(s6,s7,s8,s9,s10)][(s11)][(s12,s13,s14,s15)][({(s16,s17)})][({(s18,s19)})][(s20,s21,s22)]
